X: 1
T: Corkin Cross, The
M: 2/4
L: 1/8
R: polka
K: Dmaj
FA AB/c/|de d>c|BG B/c/d|e>d ef|
FA AB/c/|de f>e|dB Af|e2 d2:|
fa d>e|fa af|gb e>f|gb ba|
fa/f/ ef/e/|de f>e|dB Af|e2 d2:|
